X:1
T:La notte forge
T:La notte forge
T:Raffaello Rontani
T:Source : Le varie Musiche a uno e due voci---Roma---G.B.Robletti---1622. Editor : André Vierendeels (02/05/16).
T:Notes : Original clefs : C1, F4 Editorial accidentals above the staff 
T:©
T:©
C:Raffaello Rontani
Z:©
%%score 1 2
L:1/8
Q:1/4=85
M:4/4
K:F
V:1 treble nm="Soprano" snm="S"
V:2 bass nm="BC" snm="BC"
V:1
 z4 z A AB/c/ | dd c>B- A2 G/F/G/E/ | F/G/A/B/ cd/e/ f2 FG | G4 Ffff | _ef/e/ d2 c4 | B4 B2 A2 | %6
w: La not- * *|* te for- ge _ spar- * * *|* * * * * * * * sa d'o-|bli- o, ma gia non|por- * * * ge|pa- ce'al cor|
w: Con pie _ _|_ d'ar- gen- to _ leg- * * *|gia- * * * * * * * dre, e|bel- le, a cen- to,|a _ _ cen- to,|dan- zan le|
w: Il mar _ _|_ sen- z'on- de _ pro- * * *|fan- * * * * * * * do gi-|a- ce, e tra le|fron- * * * de|l'au- ra fi|
 A4 G4 :: z4 z2 A2 | c3 G BA AG | Gccc B4 | Afff _e4 | d4 B4- | B2 FG _A3 G | G3 F F4 :| %14
w: mi- o,|Ahi|Li- dia sen- * to _|mi tra- fig- ger l'al-|ma, tra- fig- ger l'al-|ma, e|_ di mo- rir con-|ten- to- mi.|
w: stel- le,||||||||
w: ta- ce,||||||||
V:2
 F,2 E,2 D,2 C,2 | B,,2 C,2 F,2 E,2 | D,2 C,2 B,,2 A,,2 | B,,2 C,2 F,,2 F,2 | C,2 G,2 C,2 B,,A,, | %5
 G,,2 A,,2 B,,2 C,2 | D,4 G,,4 :: F,8 | E,4 D,4 | C,2 A,,2 D,2 E,2 | F,2 D,2 G,2 A,2 | %11
 B,2 A,2 G,2 F,2 | _E,2 D,2 C,2 B,,2 | C,4 F,,4 :| %14

